.local/share/icons/Gruvbox-Plus-Dark/panel/16/dropboxstatus-busy.svg

<svg xmlns="http://www.w3.org/2000/svg" width="16" height="16" version="1.1">
 <defs>
  <style id="current-color-scheme" type="text/css">
   .ColorScheme-Text { color:#ebdbb2; } .ColorScheme-Highlight { color:#458588; }
  </style>
 </defs>
 <path style="fill:currentColor" class="ColorScheme-Text" d="M 4.4472656 1 L 4.4492188 1.0039062 L 0.0078125 3.5078125 L 4 5.9863281 L 0 9.0039062 L 4.4492188 11.5 L 8 9.0097656 L 4 6 L 8 3.5078125 L 12 6.0136719 L 10.263672 7.3144531 C 10.819229 7.1075274 11.407159 7.001052 12 7 C 12.613322 7.00171 13.221095 7.1162466 13.792969 7.3378906 L 12 5.9960938 L 15.990234 3.5058594 L 11.550781 1 L 8 3.4921875 L 4.4472656 1 z M 12 8 C 9.791 8 8 9.7909999 8 12 C 8 14.209 9.791 16 12 16 C 14.209 16 16 14.209 16 12 C 16 9.7909999 14.209 8 12 8 z M 12 9 A 3 3 0 0 1 15 12 L 14 12 A 2 2 0 0 0 12 10 L 12 9 z M 7.2128906 10.5625 L 4.4492188 12.501953 L 3.5605469 12.003906 L 3.5605469 12.375 L 8 15 L 8.0058594 14.998047 C 7.3550571 14.133881 7.0021123 13.081851 7 12 C 7.0005819 11.513023 7.072303 11.028743 7.2128906 10.5625 z M 9 12 L 10 12 A 2 2 0 0 0 12 14 L 12 15 A 3 3 0 0 1 9 12 z"/>
</svg>

<svg width="16" height="16" version="1.1" xmlns="http://www.w3.org/2000/svg">
  <defs>
    <style id="current-color-scheme" type="text/css">.ColorScheme-Text { color:#ebdbb2; } .ColorScheme-Highlight { color:#458588; } .ColorScheme-NeutralText { color:#fe8019; } .ColorScheme-PositiveText { color:#689d6a; } .ColorScheme-NegativeText { color:#fb4934; }</style>
  </defs>
  <path class="ColorScheme-Text" d="m4.447 1 0.00195 0.0039-4.441 2.504 3.992 2.479-4 3.018 4.449 2.496 3.551-2.49-4-3.01 4-2.492 4 2.506-1.736 1.301c0.5556-0.2069 1.143-0.3134 1.736-0.3145 0.6133 0.0017 1.221 0.1162 1.793 0.3379l-1.793-1.342 3.99-2.49-4.439-2.506-3.551 2.492zm7.553 7c-2.209 0-4 1.791-4 4s1.791 4 4 4c2.209 0 4-1.791 4-4s-1.791-4-4-4zm0 1c1.657 0 3 1.343 3 3h-1c0-1.105-0.8954-2-2-2zm-4.787 1.562-2.764 1.939-0.8887-0.498v0.3711l4.439 2.625 0.00586-2e-3c-0.6508-0.8641-1.004-1.916-1.006-2.998 5.819e-4 -0.487 0.0723-0.9713 0.2129-1.438zm1.787 1.438h1c0 1.105 0.8954 2 2 2v1c-1.657 0-3-1.343-3-3z" fill="currentColor"/>
</svg>
